src/assets/images/footer-logo.svg

<svg width="84" height="91" viewBox="0 0 84 91" fill="none" xmlns="http://www.w3.org/2000/svg">
<path d="M36.6097 79.9639H33.6755L33.3644 76.4074H33.231C32.5641 78.808 31.1415 80.6307 29.2299 80.6307C27.1849 80.6307 25.8957 78.4524 25.8957 74.2735V71.2949C25.8957 67.116 27.1849 64.9821 29.4522 64.9821C31.0971 64.9821 32.2974 66.138 32.8753 68.0496H33.0087V61.1145C33.0087 59.1584 32.4752 58.3582 31.2749 58.3582C30.1191 58.3582 29.63 59.1584 29.63 61.1145V63.4262H26.0291V61.6035C26.0291 57.3801 27.8962 55.2907 31.2749 55.2907C34.698 55.2907 36.6097 57.3801 36.6097 61.6035V79.9639ZM30.8748 77.5632C32.1196 77.5632 33.0087 76.0073 33.0087 72.9842V70.8059C33.0087 69.1166 32.164 68.0496 31.0082 68.0496C30.0301 68.0496 29.4967 68.8498 29.4967 70.8059V74.7625C29.4967 76.7186 29.9412 77.5632 30.8748 77.5632ZM42.5334 55.9575H45.6898L45.9121 59.8697H46.001C46.1344 56.0464 48.1794 55.9575 50.3133 55.9575V59.6919C47.068 59.6919 46.1344 61.1589 46.1344 63.6929V79.9639H42.5334V55.9575ZM62.1938 70.8948H65.7948V74.2735C65.7948 78.4968 63.9276 80.6307 60.5489 80.6307C57.1258 80.6307 55.2142 78.4968 55.2142 74.2735V61.6035C55.2142 57.3801 57.1258 55.2907 60.5489 55.2907C63.9276 55.2907 65.7948 57.3801 65.7948 61.6035V68.6275H58.8152V74.7625C58.8152 76.7186 59.3486 77.5632 60.5045 77.5632C61.7048 77.5632 62.1938 76.7186 62.1938 74.7625V70.8948ZM62.1938 61.1145C62.1938 59.1584 61.7048 58.3582 60.5489 58.3582C59.3486 58.3582 58.8152 59.1584 58.8152 61.1145V66.0046H62.1938V61.1145ZM82.1286 55.9575L79.15 67.7384V67.8273L82.1286 79.9639H78.4832L76.7939 72.2285L76.5271 69.1166H76.3493L76.0826 72.2285L74.5266 79.9639H70.8812L73.6819 67.7384V67.6495L70.8812 55.9575H74.5266L76.0381 63.2928L76.3493 66.3603H76.5271L76.8383 63.2928L78.4832 55.9575H82.1286Z" fill="#1A1A1A"/>
<g clip-path="url(#clip0_1_52)">
<path d="M67.8589 4.01134L67.9446 4.17464L68.1045 4.26571L69.3304 4.96419L68.0858 5.62886L67.9235 5.71551L67.8334 5.8764L67.1447 7.10244L66.4927 5.85805L66.408 5.69477L66.2472 5.60369L65.0183 4.90516L66.2658 4.24053L66.4291 4.15389L66.5182 3.99299L67.2041 2.76594L67.8589 4.01134Z" fill="#1A1A1A" stroke="#1A1A1A" stroke-width="1.25574"/>
<path d="M54.9538 9.96803L55.0394 10.1313L55.1993 10.2224L57.876 11.7445L55.1586 13.1967L54.9963 13.2834L54.9062 13.4443L53.4025 16.13L51.9709 13.4031L51.8852 13.2408L51.7263 13.1497L49.0487 11.6237L51.7661 10.1754L51.9284 10.0887L52.0185 9.92785L53.5242 7.24118L54.9538 9.96803Z" fill="#1A1A1A" stroke="#1A1A1A" stroke-width="1.25574"/>
<path d="M82.883 44.8743C82.883 44.8743 37.5779 42.5145 4.48453 79.8818C4.48453 79.8818 3.59204 69.5227 0.302792 57.8287L30.4241 23.4649C30.4241 23.4649 14.8553 27.4247 0.721668 27.2312C0.721668 27.2312 4.42798 21.0225 8.0146 10.8127C8.0146 10.8127 23.9732 16.2474 40.1031 9.16552L46.3142 18.2475L23.2667 49.0983C23.6309 48.8947 55.4757 31.1884 82.883 44.8743Z" fill="#1A1A1A"/>
</g>
<defs>
<clipPath id="clip0_1_52">
<rect width="82.3952" height="79.2859" fill="white" transform="translate(1.08667 0.542969) rotate(0.784325)"/>
</clipPath>
</defs>
</svg>

<svg xmlns="http://www.w3.org/2000/svg" width="84" height="91" fill="none" viewBox="0 0 84 91"><path fill="#1a1a1a" d="M36.61 79.964h-2.934l-.312-3.557h-.133c-.667 2.401-2.09 4.224-4.001 4.224-2.045 0-3.334-2.179-3.334-6.358v-2.978c0-4.179 1.289-6.313 3.556-6.313 1.645 0 2.845 1.156 3.423 3.068h.134v-6.935c0-1.957-.534-2.757-1.734-2.757-1.156 0-1.645.8-1.645 2.757v2.311h-3.6v-1.823c0-4.223 1.866-6.312 5.245-6.312 3.423 0 5.335 2.09 5.335 6.313zm-5.735-2.4c1.245 0 2.134-1.557 2.134-4.58v-2.178c0-1.69-.845-2.756-2-2.756-.979 0-1.512.8-1.512 2.756v3.957c0 1.956.444 2.8 1.378 2.8m11.658-21.606h3.157l.222 3.912h.089c.133-3.824 2.178-3.912 4.312-3.912v3.734c-3.245 0-4.179 1.467-4.179 4v16.272h-3.6zm19.66 14.937h3.602v3.379c0 4.223-1.867 6.357-5.246 6.357-3.423 0-5.335-2.134-5.335-6.358v-12.67c0-4.223 1.912-6.312 5.335-6.312 3.379 0 5.246 2.09 5.246 6.313v7.023h-6.98v6.136c0 1.956.534 2.8 1.69 2.8 1.2 0 1.689-.844 1.689-2.8zm0-9.78c0-1.957-.488-2.757-1.644-2.757-1.2 0-1.734.8-1.734 2.757v4.89h3.379zm19.936-5.157-2.979 11.78v.09l2.979 12.136h-3.646l-1.69-7.736-.266-3.111h-.178l-.266 3.111-1.556 7.736H70.88l2.8-12.226v-.088l-2.8-11.693h3.646l1.511 7.336.311 3.067h.178l.311-3.067 1.645-7.335z"/><g fill="#1a1a1a" clip-path="url(#a)"><path stroke="#1a1a1a" stroke-width="1.256" d="m67.859 4.011.086.164.16.09 1.225.7-1.244.664-.162.087-.09.16-.69 1.226-.651-1.244-.085-.163-.16-.091-1.23-.699 1.248-.664.163-.087.09-.161.685-1.227zM54.954 9.968l.085.163.16.091 2.677 1.523-2.717 1.452-.163.086-.09.161-1.503 2.686-1.432-2.727-.086-.162-.159-.091-2.677-1.526 2.717-1.449.162-.086.09-.161 1.506-2.687z"/><path d="M82.883 44.874s-45.305-2.36-78.398 35.008c0 0-.893-10.36-4.182-22.053l30.121-34.364S14.855 27.425.722 27.23c0 0 3.706-6.209 7.293-16.418 0 0 15.958 5.434 32.088-1.647l6.211 9.081-23.047 30.851c.364-.203 32.209-17.91 59.616-4.224"/></g><defs><clipPath id="a"><path fill="#fff" d="m1.087.543 82.387 1.128-1.085 79.278L0 79.822z"/></clipPath></defs></svg>
